X:1
T: La Duc d'Angoleme's Strathspey
C:R. Mackintosh
R:Strathspey
Q: 128
K:Gm
M:4/4
L:1/16
|:D2|G4 G,3G BAGF G3D|G4 d3B FGAA c2A2|G4 G,3G BAGF G3D|EC3 D3^F GGG2 G2D2|
G4 G,3G BAGF G3D|G4 d3B FGAA c2A2|G4 G,3G BAGF G3D|EC3 D3^F GGG2 G2d2|
g3a gd3 BG3 dB3|f3g fc3 AF3 cA3|g3a gd3 BG3 dB3|ABc2 D3d BG3 Gd3|
g3a gd3 BG3 dB3|f3g fc3 AF3 cA3|BG3 cA3 dB3 ec3|d3g bag^f ggg2 g2:|
